public/images/logos/auth_providers/dropbox.svg

<?xml version="1.0" encoding="UTF-8" standalone="no"?>
<svg width="43px" xmlns="http://www.w3.org/2000/svg" viewBox="0 0 43 40" version="1.1" height="40px">
 <path d="m12.5 0l-12.5 8.1 8.7 7 12.5-7.8-8.7-7.3zm-12.5 21.9l12.5 8.2 8.7-7.3-12.5-7.7-8.7 6.8zm21.2 0.9l8.8 7.3 12.4-8.1-8.6-6.9-12.6 7.7zm21.2-14.7l-12.4-8.1-8.8 7.3 12.6 7.8 8.6-7zm-21.1 16.3l-8.8 7.3-3.7-2.5v2.8l12.5 7.5 12.5-7.5v-2.8l-3.8 2.5-8.7-7.3z" fill="#007EE5"/>
</svg>

<svg xmlns="http://www.w3.org/2000/svg" width="43" height="40"><path fill="#007ee5" d="M12.5 0 0 8.1l8.7 7 12.5-7.8zM0 21.9l12.5 8.2 8.7-7.3-12.5-7.7zm21.2.9 8.8 7.3L42.4 22l-8.6-6.9zM42.4 8.1 30 0l-8.8 7.3 12.6 7.8zM21.3 24.4l-8.8 7.3-3.7-2.5V32l12.5 7.5L33.8 32v-2.8L30 31.7z"/></svg>
